apps/scalable/midnightcommander.svg

<svg xmlns="http://www.w3.org/2000/svg" style="isolation:isolate" width="256" height="256"><defs><filter id="a" width="270.648" height="254.338" x="-7.32" y="2.95" filterUnits="userSpaceOnUse"><feGaussianBlur xmlns="http://www.w3.org/2000/svg" in="SourceGraphic" stdDeviation="4.294"/><feOffset xmlns="http://www.w3.org/2000/svg" dy="4" result="pf_100_offsetBlur"/><feFlood xmlns="http://www.w3.org/2000/svg" flood-opacity=".4"/><feComposite xmlns="http://www.w3.org/2000/svg" in2="pf_100_offsetBlur" operator="in" result="pf_100_dropShadow"/><feBlend xmlns="http://www.w3.org/2000/svg" in="SourceGraphic" in2="pf_100_dropShadow"/></filter></defs><path fill="#624444" d="M165.685 11.947c74.055 0 84.639 10.557 84.639 84.544v59.251c0 73.986-10.584 84.543-84.639 84.543h-75.37c-74.055 0-84.639-10.557-84.639-84.543V96.491c0-73.987 10.584-84.544 84.639-84.544h75.37z" filter="url(#a)"/><g opacity=".4"><linearGradient id="b" x1=".517" x2=".517" y2="1"><stop offset="0%" stop-color="#fff"/><stop offset="12.5%" stop-opacity=".098" stop-color="#fff"/><stop offset="92.5%" stop-opacity=".098"/><stop offset="100%" stop-opacity=".498"/></linearGradient><path fill="none" stroke="url(#b)" stroke-linecap="round" stroke-linejoin="round" stroke-width="4.077" d="M165.685 11.947c74.055 0 84.639 10.557 84.639 84.544v59.251c0 73.986-10.584 84.543-84.639 84.543h-75.37c-74.055 0-84.639-10.557-84.639-84.543V96.491c0-73.987 10.584-84.544 84.639-84.544h75.37z" vector-effect="non-scaling-stroke"/></g><path fill="#B29C9C" d="M68.174 96.75V66.597c0-2.662 2.148-5.097 4.487-5.097h110.678c2.363 0 4.487 2.429 4.487 5.097V96.75"/><path fill="#ECECF1" d="M61.073 79.819c-2.639.257-4.882 2.597-4.864 5.139v100.379c0 2.71 2.572 5.163 5.396 5.163h132.814c2.806 0 5.372-2.453 5.372-5.163V97.133c0-2.686-2.572-5.163-5.372-5.163h-54.615v-6.916c0-2.686-2.573-5.163-5.373-5.163H61.049"/><path fill="#B29C9C" d="M163.896 178.726v-71.791H92.104v63.236l9.046 8.669m56.763-5.983h-11.965v-11.965h-35.896v11.965h-5.982l-5.983-5.982v-53.844h5.983v41.878h47.86v-41.878h5.983M128 172.857h-11.965v-5.982H128m17.948-23.931h-35.896v-5.982h35.896m0-11.966h-35.896v-5.982h35.896"/></svg>

<svg xmlns="http://www.w3.org/2000/svg" style="isolation:isolate" width="256" height="256" viewBox="0 0 256 256">
 <defs>
  <filter id="TPQOaX9Gnmz2wykL40FrruF9kvv9jigF" width="270.648" height="254.338" x="-7.32" y="2.95" filterUnits="userSpaceOnUse">
   <feGaussianBlur xmlns="http://www.w3.org/2000/svg" in="SourceGraphic" stdDeviation="4.294"/>
   <feOffset xmlns="http://www.w3.org/2000/svg" dx="0" dy="4" result="pf_100_offsetBlur"/>
   <feFlood xmlns="http://www.w3.org/2000/svg" flood-opacity=".4"/>
   <feComposite xmlns="http://www.w3.org/2000/svg" in2="pf_100_offsetBlur" operator="in" result="pf_100_dropShadow"/>
   <feBlend xmlns="http://www.w3.org/2000/svg" in="SourceGraphic" in2="pf_100_dropShadow" mode="normal"/>
  </filter>
 </defs>
 <g filter="url(#TPQOaX9Gnmz2wykL40FrruF9kvv9jigF)">
  <path fill="#624444" d="M 165.685 11.947 C 239.74 11.947 250.324 22.504 250.324 96.491 L 250.324 155.742 C 250.324 229.728 239.74 240.285 165.685 240.285 L 90.315 240.285 C 16.26 240.285 5.676 229.728 5.676 155.742 L 5.676 96.491 C 5.676 22.504 16.26 11.947 90.315 11.947 L 165.685 11.947 Z"/>
 </g>
 <g opacity=".4">
  <linearGradient id="_lgradient_146" x1=".517" x2=".517" y1="0" y2="1">
   <stop offset="0%" style="stop-color:rgb(255,255,255)"/>
   <stop offset="12.5%" stop-opacity=".098" style="stop-color:rgb(255,255,255)"/>
   <stop offset="92.5%" stop-opacity=".098" style="stop-color:rgb(0,0,0)"/>
   <stop offset="100%" stop-opacity=".498" style="stop-color:rgb(0,0,0)"/>
  </linearGradient>
  <path fill="none" stroke="url(#_lgradient_146)" stroke-linecap="round" stroke-linejoin="round" stroke-width="4.077" d="M 165.685 11.947 C 239.74 11.947 250.324 22.504 250.324 96.491 L 250.324 155.742 C 250.324 229.728 239.74 240.285 165.685 240.285 L 90.315 240.285 C 16.26 240.285 5.676 229.728 5.676 155.742 L 5.676 96.491 C 5.676 22.504 16.26 11.947 90.315 11.947 L 165.685 11.947 Z" vector-effect="non-scaling-stroke"/>
 </g>
 <g>
  <path fill="#B29C9C" d="M 68.174 96.75 L 68.174 66.597 C 68.174 63.935 70.322 61.5 72.661 61.5 L 183.339 61.5 C 185.702 61.5 187.826 63.929 187.826 66.597 L 187.826 96.75"/>
  <path fill="#ECECF1" d="M 61.073 79.819 C 58.434 80.076 56.191 82.416 56.209 84.958 L 56.209 185.337 C 56.209 188.047 58.781 190.5 61.605 190.5 L 194.419 190.5 C 197.225 190.5 199.791 188.047 199.791 185.337 L 199.791 97.133 C 199.791 94.447 197.219 91.97 194.419 91.97 L 139.804 91.97 L 139.804 85.054 C 139.804 82.368 137.231 79.891 134.431 79.891 L 61.587 79.891 C 61.426 79.891 61.234 79.891 61.049 79.891"/>
  <path fill="#B29C9C" d="M 163.896 178.726 L 163.896 106.935 L 92.104 106.935 L 92.104 170.171 L 101.15 178.84 M 157.913 172.857 L 145.948 172.857 L 145.948 160.892 L 110.052 160.892 L 110.052 172.857 L 104.07 172.857 L 98.087 166.875 L 98.087 113.031 L 104.07 113.031 L 104.07 154.909 L 151.93 154.909 L 151.93 113.031 L 157.913 113.031 M 128 172.857 L 116.035 172.857 L 116.035 166.875 L 128 166.875 M 145.948 142.944 L 110.052 142.944 L 110.052 136.962 L 145.948 136.962 M 145.948 124.996 L 110.052 124.996 L 110.052 119.014 L 145.948 119.014"/>
 </g>
</svg>
